src/atoms/icons/icons/logo.svg

<svg xmlns="http://www.w3.org/2000/svg" width="242.176" height="100.722" viewBox="0 0 242.176 100.722">
  <path d="M47.627,93.044a.444.444,0,0,1-.218,0,.511.511,0,0,1-.361-.4h0c-.2-1.271,5.31-12.959,7.845-17.5,1.271-2.256,10.786-8.484,17.2-11.538.572-.271,4.28-2.053,4.393-1.85s-3.347,2.9-3.528,3.054c-5.641,4.528-15.727,16.374-20.992,23.113C48.613,92.217,48,92.969,47.627,93.044ZM47.507,92.548Z" transform="translate(-11.66 -15.293)" fill="#fff"/>
  <path d="M99.311,17.943h0c8.868-.278,13.539,2.256,15.863,4.513a9.447,9.447,0,0,1,3.144,6.551c.06,3.362-3.573,4.37-5.746,4.979-.293.075-.647.173-.94.271,1.5.6,4.942,1.677,8.04,2.64,12.884,4.016,18.337,6.017,18.8,7.755a1.136,1.136,0,0,1-.331,1.106c-.692.579-2,.481-4.182.113l-.316-.053c-22.384-3.565-37.69-3.309-37.848-3.309-41.067.624-62.06,30.4-68.964,40.187-1.813,2.58-2.535,3.6-3.2,3.618a.925.925,0,0,1-.534-.181,1.414,1.414,0,0,1-.5-1.158c-.15-4.641,9.6-32.087,30.357-47.679C61.591,30.8,76.272,24.223,97.4,29.4a7.085,7.085,0,0,1-1.9-4.776c-6.205.812-17.3-.075-25.2-1.106-6.792-.91-18.27-2.76-19.007-5.378-.158-.572.075-1.188,1.542-2.046,6.6-3.881,16.073-4.723,16.073-4.723C95.618,8.789,99.311,17.943,99.311,17.943Z" transform="translate(-5.601 -2.695)" fill="#fff"/>
  <path d="M83.493,6.473S75.422,1.719,76.723.456s16.081,0,25.8,4.174,10.334,8.83,10.334,8.83C109.69,8.271,101.348,5.066,83.493,6.473Z" transform="translate(-18.981 0.012)" fill="#fff"/>
  <path d="M170.583,47.169c-1.444.045-2.715.068-4.633.1A3.9,3.9,0,0,1,164.573,47l-12.35-3.926c-.361-.113-2.708-.872-2.5-1.181s2.369-.293,2.745-.278h.835c15.156.444,24.069,1.5,26.6,3.136h0a.827.827,0,0,1,.391.963C180.157,46.266,180.015,46.89,170.583,47.169Z" transform="translate(-37.107 -10.304)" fill="#fff"/>
  <path d="M47.525,52.009a2.038,2.038,0,0,1-1.188-.128c-.624-.256-.918-.752-1.5-1.5-1.5-1.835-2.106-3.911-1.617-5.4a2.775,2.775,0,0,1,2.053-1.805c2.956-.752,6.288.4,7.521,1.805,1,1.1.542,1.459-.752,2.535a23.708,23.708,0,0,0-2.144,2.031C48.8,50.663,48.4,51.581,47.525,52.009Z" transform="translate(-10.67 -10.632)" fill="#fff"/>
  <ellipse cx="29.123" cy="2.001" rx="29.123" ry="2.001" transform="translate(0 87.913)" fill="#fff"/>
  <path d="M100.992,83.444c-4.1,0-6.732-3.009-6.732-7.1a9.447,9.447,0,0,1,9.658-9.545h7.288a1.459,1.459,0,0,1,1.437,1.707h0a1.459,1.459,0,0,1-1.437,1.2h-7.792a6.213,6.213,0,0,0-6.22,6.423,4.513,4.513,0,0,0,4.513,4.4h7.078a1.452,1.452,0,0,1,1.429,1.7h0a1.452,1.452,0,0,1-1.429,1.211Z" transform="translate(-23.363 -16.547)" fill="#fff"/>
  <path d="M135.328,82.385l-1.346-3.2h-5.506a1.181,1.181,0,0,1-.94-1.9h0a1.188,1.188,0,0,1,.94-.466h4.513l-2.6-6.183-9.4,12.252a1.316,1.316,0,0,1-1.038.519h0a1.316,1.316,0,0,1-1.045-2.151L129.657,67.44a1.978,1.978,0,0,1,1.572-.94,1.3,1.3,0,0,1,1.211.94l5.852,13.727a1.61,1.61,0,0,1-1.5,2.256h0a1.61,1.61,0,0,1-1.459-1.038Z" transform="translate(-29.396 -16.473)" fill="#fff"/>
  <path d="M150.712,81.765l2.129-12.034h-4.588a1.452,1.452,0,0,1-1.429-1.7h0a1.452,1.452,0,0,1,1.429-1.211h12.591a1.452,1.452,0,0,1,1.429,1.707h0a1.452,1.452,0,0,1-1.429,1.2h-5.092l-2.219,12.546a1.437,1.437,0,0,1-1.407,1.188h0a1.437,1.437,0,0,1-1.414-1.7Z" transform="translate(-36.385 -16.552)" fill="#fff"/>
  <path d="M173.782,83.444c-4.1,0-6.732-3.009-6.732-7.1a9.447,9.447,0,0,1,9.642-9.545h7.3a1.459,1.459,0,0,1,1.429,1.707h0a1.459,1.459,0,0,1-1.429,1.2h-7.8a6.213,6.213,0,0,0-6.22,6.423,4.513,4.513,0,0,0,4.513,4.4h7.07a1.452,1.452,0,0,1,1.429,1.7h0a1.452,1.452,0,0,1-1.429,1.211Z" transform="translate(-41.404 -16.547)" fill="#fff"/>
  <path d="M191.453,81.828,193.9,67.988a1.437,1.437,0,0,1,1.414-1.188h0a1.429,1.429,0,0,1,1.406,1.655l-2.444,13.839a1.437,1.437,0,0,1-1.414,1.2h0a1.429,1.429,0,0,1-1.406-1.67Zm13.388,0,.985-5.551H198.99a1.286,1.286,0,0,1-1.271-1.5h0a1.294,1.294,0,0,1,1.271-1.053h7.3l1-5.7A1.437,1.437,0,0,1,208.7,66.83h0a1.429,1.429,0,0,1,1.406,1.625l-2.452,13.87a1.437,1.437,0,0,1-1.406,1.173h0a1.437,1.437,0,0,1-1.407-1.67Z" transform="translate(-47.447 -16.547)" fill="#fff"/>
  <path d="M231.71,81.765l2.129-12.034H229.25a1.459,1.459,0,0,1-1.437-1.7h0a1.459,1.459,0,0,1,1.437-1.211h12.591a1.459,1.459,0,0,1,1.429,1.707h0a1.459,1.459,0,0,1-1.429,1.2h-5.1L234.53,82.277a1.437,1.437,0,0,1-1.414,1.188h0a1.429,1.429,0,0,1-1.406-1.7Z" transform="translate(-56.46 -16.552)" fill="#fff"/>
  <path d="M247.794,81.828l2.452-13.839a1.437,1.437,0,0,1,1.407-1.188h0a1.429,1.429,0,0,1,1.407,1.655l-2.444,13.839a1.437,1.437,0,0,1-1.407,1.2h0a1.437,1.437,0,0,1-1.414-1.67Zm13.388,0,.985-5.551h-6.829a1.294,1.294,0,0,1-1.279-1.5h0a1.3,1.3,0,0,1,1.279-1.068h7.288l1.008-5.7a1.437,1.437,0,0,1,1.406-1.188h0a1.429,1.429,0,0,1,1.407,1.64L264,82.294a1.437,1.437,0,0,1-1.406,1.2h0a1.437,1.437,0,0,1-1.414-1.67Z" transform="translate(-61.412 -16.547)" fill="#fff"/>
  <path d="M289.951,82.385l-1.354-3.2h-5.5a1.181,1.181,0,0,1-.94-1.9h0a1.188,1.188,0,0,1,.94-.466h4.513l-2.6-6.183-9.4,12.252a1.316,1.316,0,0,1-1.038.519h0a1.316,1.316,0,0,1-1.038-2.114L284.272,67.44a2,2,0,0,1,1.579-.94,1.3,1.3,0,0,1,1.241.94l5.822,13.727a1.61,1.61,0,0,1-1.5,2.256h0a1.61,1.61,0,0,1-1.459-1.038Z" transform="translate(-67.729 -16.473)" fill="#fff"/>
  <path d="M305.292,81.765l2.129-12.034h-4.588a1.452,1.452,0,0,1-1.429-1.7h0a1.452,1.452,0,0,1,1.429-1.211h12.591a1.452,1.452,0,0,1,1.429,1.707h0a1.452,1.452,0,0,1-1.429,1.2h-5.092l-2.219,12.546a1.437,1.437,0,0,1-1.406,1.188h0a1.437,1.437,0,0,1-1.414-1.7Z" transform="translate(-74.699 -16.552)" fill="#fff"/>
  <path d="M110.19,123.4l-4.979-6.769H97.17A2.2,2.2,0,0,1,95,114.076h0a2.2,2.2,0,0,1,2.166-1.828h10c4.3,0,6.611-2.7,6.611-6.882,0-2.858-1.685-4.3-4.611-4.3H93.673L89.912,122.53a2.422,2.422,0,0,1-2.392,2h0a2.437,2.437,0,0,1-2.392-2.851l3.889-22.06a4.257,4.257,0,0,1,4.2-3.52h16.841c5.634,0,8.725,3.242,8.725,8.364,0,5.6-3.009,9.74-7.747,11.425l3.46,4.242a2.7,2.7,0,0,1-2.091,4.4h0a2.708,2.708,0,0,1-2.211-1.128Z" transform="translate(-21.091 -23.81)" fill="#fff"/>
  <path d="M157.411,122.677l-2.3-5.476h-9.4a2.008,2.008,0,0,1-1.6-3.227h0a1.993,1.993,0,0,1,1.6-.8h7.725l-4.46-10.643L132.9,123.49a2.256,2.256,0,0,1-1.768.872h0a2.256,2.256,0,0,1-1.768-3.6l18.352-23.617a3.415,3.415,0,0,1,2.7-1.6,2.2,2.2,0,0,1,2.114,1.6l9.951,23.392a2.745,2.745,0,0,1-2.527,3.828h0a2.76,2.76,0,0,1-2.542-1.685Z" transform="translate(-31.953 -23.671)" fill="#fff"/>
  <path d="M177.418,119.489l3.505-19.909a4.265,4.265,0,0,1,4.2-3.52h17.224c4.972,0,8.1,2.106,8.1,6.138a7.063,7.063,0,0,1-5.167,7.273,5.232,5.232,0,0,1,3.445,5.265c0,5.6-4.513,9.778-10.793,9.778H181.6a4.265,4.265,0,0,1-4.182-5.024Zm10.312-9.778h0a2.1,2.1,0,0,1,2.061-1.73h10.53c3.4,0,4.814-1.324,4.814-4.107,0-2.422-2.2-2.813-5.521-2.813h-13.96l-3.3,18.5h14.4c3.949,0,6.882-1.136,6.882-4.423,0-1.918-1.294-3.009-3.716-3.009H189.79a2.1,2.1,0,0,1-2.061-2.46Z" transform="translate(-43.957 -23.8)" fill="#fff"/>
  <path d="M223.758,119.489l3.505-19.909a4.257,4.257,0,0,1,4.182-3.52h17.232c4.964,0,8.093,2.106,8.093,6.138a7.065,7.065,0,0,1-5.16,7.273,5.236,5.236,0,0,1,3.437,5.265c0,5.6-4.513,9.778-10.793,9.778h-16.3a4.265,4.265,0,0,1-4.2-5.024Zm10.312-9.778h0a2.091,2.091,0,0,1,2.053-1.73h10.53c3.407,0,4.814-1.324,4.814-4.107,0-2.422-2.189-2.813-5.513-2.813H231.986L228.7,119.6h14.4c3.949,0,6.882-1.136,6.882-4.423,0-1.918-1.286-3.009-3.716-3.009H236.123a2.091,2.091,0,0,1-2.053-2.5Z" transform="translate(-55.442 -23.8)" fill="#fff"/>
  <path d="M269.929,121.994l4.2-23.918a2.452,2.452,0,0,1,2.414-2.016h0a2.444,2.444,0,0,1,2.407,2.866l-4.189,23.805a2.136,2.136,0,0,1-2.1,1.76h-.639a2.129,2.129,0,0,1-2.1-2.5Z" transform="translate(-66.895 -23.8)" fill="#fff"/>
  <path d="M293.457,121.578l3.64-20.594h-7.845a2.482,2.482,0,0,1-2.444-2.911h0a2.475,2.475,0,0,1,2.444-2.053h21.519a2.475,2.475,0,0,1,2.444,2.9h0a2.482,2.482,0,0,1-2.444,2.061h-8.71L298.3,122.435a2.452,2.452,0,0,1-2.407,2.016h0a2.444,2.444,0,0,1-2.437-2.873Z" transform="translate(-71.077 -23.79)" fill="#fff"/>
</svg>

<?xml version="1.0" encoding="UTF-8" standalone="no"?>
<!DOCTYPE svg PUBLIC "-//W3C//DTD SVG 1.1//EN" "http://www.w3.org/Graphics/SVG/1.1/DTD/svg11.dtd">
<svg width="100%" height="100%" viewBox="0 0 121 50" version="1.1" xmlns="http://www.w3.org/2000/svg" xmlns:xlink="http://www.w3.org/1999/xlink" xml:space="preserve" xmlns:serif="http://www.serif.com/" style="fill-rule:evenodd;clip-rule:evenodd;stroke-linejoin:round;stroke-miterlimit:2;">
    <g>
        <g transform="matrix(0.480718,0,0,0.480718,-3.60517,-6.3515)">
            <path d="M47.627,93.044C47.555,93.062 47.481,93.062 47.409,93.044C47.223,92.99 47.082,92.835 47.048,92.644C46.848,91.373 52.358,79.685 54.893,75.144C56.164,72.888 65.679,66.66 72.093,63.606C72.665,63.335 76.373,61.553 76.486,61.756C76.599,61.959 73.139,64.656 72.958,64.81C67.317,69.338 57.231,81.184 51.966,87.923C48.613,92.217 48,92.969 47.627,93.044Z" style="fill:white;fill-rule:nonzero;"/>
        </g>
        <g transform="matrix(0.480718,0,0,0.480718,-0.6925,-0.295418)">
            <path d="M99.311,17.943C108.179,17.665 112.85,20.199 115.174,22.456C117.053,24.133 118.185,26.492 118.318,29.007C118.378,32.369 114.745,33.377 112.572,33.986C112.279,34.061 111.925,34.159 111.632,34.257C113.132,34.857 116.574,35.934 119.672,36.897C132.556,40.913 138.009,42.914 138.472,44.652C138.571,45.053 138.444,45.477 138.141,45.758C137.449,46.337 136.141,46.239 133.959,45.871L133.643,45.818C111.259,42.253 95.953,42.509 95.795,42.509C54.728,43.133 33.735,72.909 26.831,82.696C25.018,85.276 24.296,86.296 23.631,86.314C23.439,86.311 23.252,86.247 23.097,86.133C22.758,85.847 22.573,85.418 22.597,84.975C22.447,80.334 32.197,52.888 52.954,37.296C61.591,30.8 76.272,24.223 97.4,29.4C96.192,28.102 95.513,26.397 95.5,24.624C89.295,25.436 78.2,24.549 70.3,23.518C63.508,22.608 52.03,20.758 51.293,18.14C51.135,17.568 51.368,16.952 52.835,16.094C59.435,12.213 68.908,11.371 68.908,11.371C95.618,8.789 99.311,17.943 99.311,17.943Z" style="fill:white;fill-rule:nonzero;"/>
        </g>
        <g transform="matrix(0.480718,0,0,0.480718,-7.1245,1.00589)">
            <path d="M83.493,6.473C83.493,6.473 75.422,1.719 76.723,0.456C78.024,-0.807 92.804,0.456 102.523,4.63C112.242,8.804 112.857,13.46 112.857,13.46C109.69,8.271 101.348,5.066 83.493,6.473Z" style="fill:white;fill-rule:nonzero;"/>
        </g>
        <g transform="matrix(0.480718,0,0,0.480718,-15.838,-3.9532)">
            <path d="M170.583,47.169C169.139,47.214 167.868,47.237 165.95,47.269C165.479,47.263 165.012,47.172 164.573,47L152.223,43.074C151.862,42.961 149.515,42.202 149.723,41.893C149.931,41.584 152.092,41.6 152.468,41.615L153.303,41.615C168.459,42.059 177.372,43.115 179.903,44.751C180.243,44.939 180.406,45.342 180.294,45.714C180.157,46.266 180.015,46.89 170.583,47.169Z" style="fill:white;fill-rule:nonzero;"/>
        </g>
        <g transform="matrix(0.480718,0,0,0.480718,-3.12926,-4.11087)">
            <path d="M47.525,52.009C47.125,52.086 46.711,52.041 46.337,51.881C45.713,51.625 45.419,51.129 44.837,50.381C43.337,48.546 42.731,46.47 43.22,44.981C43.54,44.062 44.32,43.375 45.273,43.176C48.229,42.424 51.561,43.576 52.794,44.981C53.794,46.081 53.336,46.44 52.042,47.516C51.286,48.148 50.57,48.826 49.898,49.547C48.8,50.663 48.4,51.581 47.525,52.009Z" style="fill:white;fill-rule:nonzero;"/>
        </g>
        <g transform="matrix(0.480718,0,0,0.480718,2,43.2615)">
            <ellipse cx="29.123" cy="2.001" rx="29.123" ry="2.001" style="fill:white;"/>
        </g>
    </g>
    <g>
        <g transform="matrix(0.480718,0,0,0.480718,-9.23101,-6.95432)">
            <path d="M100.992,83.444C96.892,83.444 94.26,80.435 94.26,76.344C94.26,76.311 94.259,76.277 94.259,76.244C94.259,71.061 98.524,66.797 103.706,66.797C103.777,66.797 103.847,66.797 103.918,66.799L111.206,66.799C112.006,66.799 112.664,67.458 112.664,68.258C112.664,68.341 112.657,68.424 112.643,68.506C112.518,69.198 111.909,69.707 111.206,69.706L103.414,69.706C103.41,69.706 103.407,69.706 103.403,69.706C99.995,69.706 97.19,72.511 97.19,75.919C97.19,75.989 97.192,76.059 97.194,76.129C97.255,78.562 99.273,80.53 101.707,80.529L108.785,80.529C109.581,80.53 110.235,81.185 110.235,81.981C110.235,82.064 110.228,82.147 110.214,82.229C110.097,82.924 109.49,83.439 108.785,83.44L100.992,83.444Z" style="fill:white;fill-rule:nonzero;"/>
        </g>
        <g transform="matrix(0.480718,0,0,0.480718,-12.1312,-6.91875)">
            <path d="M135.328,82.385L133.982,79.185L128.476,79.185C128.475,79.185 128.474,79.185 128.473,79.185C127.825,79.185 127.292,78.652 127.292,78.004C127.292,77.744 127.378,77.491 127.536,77.285C127.76,76.992 128.108,76.82 128.476,76.819L132.989,76.819L130.389,70.636L120.989,82.888C120.742,83.212 120.358,83.404 119.951,83.407C119.942,83.407 119.932,83.407 119.923,83.407C119.201,83.407 118.607,82.813 118.607,82.091C118.607,81.787 118.713,81.491 118.906,81.256L129.657,67.44C129.995,66.889 130.583,66.537 131.229,66.5C131.793,66.517 132.284,66.898 132.44,67.44L138.292,81.167C138.381,81.371 138.427,81.591 138.427,81.813C138.427,82.696 137.701,83.423 136.817,83.423C136.809,83.423 136.8,83.423 136.792,83.423C136.142,83.404 135.564,82.993 135.333,82.385L135.328,82.385Z" style="fill:white;fill-rule:nonzero;"/>
        </g>
        <g transform="matrix(0.480718,0,0,0.480718,-15.4909,-6.95672)">
            <path d="M150.712,81.765L152.841,69.731L148.253,69.731C147.457,69.73 146.803,69.075 146.803,68.279C146.803,68.196 146.81,68.113 146.824,68.031C146.941,67.336 147.548,66.821 148.253,66.82L160.844,66.82C161.64,66.82 162.296,67.476 162.296,68.272C162.296,68.357 162.288,68.443 162.273,68.527C162.151,69.218 161.545,69.727 160.844,69.727L155.752,69.727L153.533,82.273C153.413,82.954 152.818,83.457 152.126,83.461C152.126,83.461 152.125,83.461 152.125,83.461C151.336,83.461 150.688,82.812 150.688,82.024C150.688,81.936 150.696,81.848 150.712,81.761L150.712,81.765Z" style="fill:white;fill-rule:nonzero;"/>
        </g>
        <g transform="matrix(0.480718,0,0,0.480718,-17.9036,-6.95432)">
            <path d="M173.782,83.444C169.682,83.444 167.05,80.435 167.05,76.344C167.05,76.311 167.049,76.277 167.049,76.244C167.049,71.062 171.314,66.797 176.496,66.797C176.562,66.797 176.627,66.798 176.692,66.799L183.992,66.799C184.789,66.804 185.442,67.461 185.442,68.258C185.442,68.341 185.435,68.424 185.421,68.506C185.297,69.195 184.693,69.703 183.992,69.706L176.192,69.706C176.188,69.706 176.185,69.706 176.181,69.706C172.773,69.706 169.968,72.511 169.968,75.919C169.968,75.989 169.97,76.059 169.972,76.129C170.033,78.562 172.051,80.53 174.485,80.529L181.555,80.529C182.351,80.53 183.005,81.185 183.005,81.981C183.005,82.064 182.998,82.147 182.984,82.229C182.867,82.924 182.26,83.439 181.555,83.44L173.782,83.444Z" style="fill:white;fill-rule:nonzero;"/>
        </g>
        <g transform="matrix(0.480718,0,0,0.480718,-20.8086,-6.95432)">
            <path d="M191.453,81.828L193.9,67.988C194.02,67.304 194.62,66.801 195.314,66.8C196.096,66.803 196.738,67.447 196.738,68.229C196.738,68.305 196.732,68.38 196.72,68.455L194.276,82.294C194.161,82.982 193.56,83.492 192.862,83.494C192.079,83.493 191.436,82.848 191.436,82.065C191.436,81.984 191.442,81.904 191.456,81.824L191.453,81.828ZM204.841,81.828L205.826,76.277L198.99,76.277C198.989,76.277 198.988,76.277 198.987,76.277C198.282,76.277 197.701,75.696 197.701,74.991C197.701,74.919 197.707,74.848 197.719,74.777C197.834,74.169 198.371,73.724 198.99,73.724L206.29,73.724L207.29,68.024C207.407,67.339 208.005,66.833 208.7,66.83C209.48,66.835 210.12,67.479 210.12,68.259C210.12,68.325 210.115,68.39 210.106,68.455L207.654,82.325C207.528,83 206.935,83.495 206.248,83.498C205.464,83.492 204.822,82.845 204.822,82.061C204.822,81.983 204.828,81.905 204.841,81.828Z" style="fill:white;fill-rule:nonzero;"/>
        </g>
        <g transform="matrix(0.480718,0,0,0.480718,-25.1413,-6.95672)">
            <path d="M231.71,81.765L233.839,69.731L229.25,69.731C228.45,69.73 227.793,69.072 227.793,68.272C227.793,68.191 227.8,68.111 227.813,68.031C227.933,67.334 228.543,66.82 229.25,66.82L241.841,66.82C242.638,66.825 243.291,67.482 243.291,68.279C243.291,68.362 243.284,68.445 243.27,68.527C243.146,69.216 242.542,69.724 241.841,69.727L236.741,69.727L234.53,82.277C234.41,82.961 233.81,83.464 233.116,83.465C233.115,83.465 233.114,83.465 233.113,83.465C232.329,83.465 231.684,82.82 231.684,82.036C231.684,81.945 231.693,81.854 231.71,81.765Z" style="fill:white;fill-rule:nonzero;"/>
        </g>
        <g transform="matrix(0.480718,0,0,0.480718,-27.5218,-6.95432)">
            <path d="M247.794,81.828L250.246,67.989C250.366,67.308 250.961,66.805 251.653,66.801C252.435,66.803 253.078,67.448 253.078,68.23C253.078,68.306 253.072,68.381 253.06,68.456L250.616,82.295C250.501,82.981 249.904,83.49 249.209,83.495C248.422,83.493 247.776,82.845 247.776,82.058C247.776,81.98 247.782,81.902 247.795,81.825L247.794,81.828ZM261.182,81.828L262.167,76.277L255.338,76.277C255.337,76.277 255.337,76.277 255.336,76.277C254.627,76.277 254.042,75.693 254.042,74.983C254.042,74.914 254.048,74.845 254.059,74.777C254.171,74.161 254.712,73.709 255.338,73.709L262.626,73.709L263.634,68.009C263.754,67.328 264.349,66.825 265.04,66.821C265.822,66.824 266.463,67.468 266.463,68.25C266.463,68.321 266.457,68.391 266.447,68.461L264,82.294C263.885,82.98 263.289,83.489 262.594,83.494C261.807,83.492 261.161,82.844 261.161,82.057C261.161,81.979 261.167,81.901 261.18,81.824L261.182,81.828Z" style="fill:white;fill-rule:nonzero;"/>
        </g>
        <g transform="matrix(0.480718,0,0,0.480718,-30.5585,-6.91875)">
            <path d="M289.951,82.385L288.597,79.185L283.097,79.185C283.096,79.185 283.095,79.185 283.094,79.185C282.446,79.185 281.913,78.652 281.913,78.004C281.913,77.744 281.999,77.491 282.157,77.285C282.381,76.992 282.729,76.82 283.097,76.819L287.61,76.819L285.01,70.636L275.61,82.888C275.363,83.212 274.979,83.404 274.572,83.407C273.853,83.402 273.264,82.81 273.264,82.091C273.264,81.803 273.359,81.522 273.534,81.293L284.272,67.44C284.614,66.89 285.204,66.539 285.851,66.5C286.426,66.504 286.933,66.888 287.092,67.44L292.914,81.167C293.003,81.371 293.049,81.591 293.049,81.813C293.049,82.696 292.323,83.423 291.439,83.423C291.431,83.423 291.422,83.423 291.414,83.423C290.764,83.404 290.186,82.993 289.955,82.385L289.951,82.385Z" style="fill:white;fill-rule:nonzero;"/>
        </g>
        <g transform="matrix(0.480718,0,0,0.480718,-33.9091,-6.95672)">
            <path d="M305.292,81.765L307.421,69.731L302.833,69.731C302.037,69.73 301.383,69.075 301.383,68.279C301.383,68.196 301.39,68.113 301.404,68.031C301.521,67.336 302.128,66.821 302.833,66.82L315.424,66.82C316.22,66.82 316.876,67.476 316.876,68.272C316.876,68.357 316.868,68.443 316.853,68.527C316.731,69.218 316.125,69.727 315.424,69.727L310.332,69.727L308.113,82.273C307.993,82.954 307.398,83.457 306.707,83.461C306.707,83.461 306.706,83.461 306.706,83.461C305.917,83.461 305.269,82.812 305.269,82.024C305.269,81.936 305.277,81.848 305.293,81.761L305.292,81.765Z" style="fill:white;fill-rule:nonzero;"/>
        </g>
        <g transform="matrix(0.480718,0,0,0.480718,-8.13882,-10.4458)">
            <path d="M110.19,123.4L105.211,116.631L97.17,116.631C95.964,116.63 94.971,115.637 94.971,114.431C94.971,114.312 94.981,114.193 95,114.076C95.18,113.025 96.1,112.249 97.166,112.248L107.166,112.248C111.466,112.248 113.777,109.548 113.777,105.366C113.777,102.508 112.092,101.066 109.166,101.066L93.673,101.066L89.912,122.53C89.708,123.685 88.693,124.533 87.52,124.53C86.187,124.525 85.093,123.426 85.093,122.093C85.093,121.954 85.104,121.816 85.128,121.679L89.017,99.619C89.374,97.589 91.156,96.095 93.217,96.099L110.058,96.099C115.692,96.099 118.783,99.341 118.783,104.463C118.783,110.063 115.774,114.203 111.036,115.888L114.496,120.13C114.886,120.611 115.098,121.211 115.098,121.83C115.098,123.309 113.884,124.526 112.405,124.53C111.53,124.534 110.705,124.113 110.194,123.402L110.19,123.4Z" style="fill:white;fill-rule:nonzero;"/>
        </g>
        <g transform="matrix(0.480718,0,0,0.480718,-13.3604,-10.379)">
            <path d="M157.411,122.677L155.111,117.201L145.711,117.201C145.71,117.201 145.708,117.201 145.707,117.201C144.605,117.201 143.699,116.295 143.699,115.193C143.699,114.753 143.844,114.324 144.111,113.974C144.488,113.47 145.082,113.173 145.711,113.174L153.436,113.174L148.976,102.531L132.9,123.49C132.476,124.036 131.823,124.358 131.132,124.362C129.911,124.338 128.92,123.328 128.92,122.106C128.92,121.622 129.075,121.151 129.364,120.762L147.716,97.145C148.303,96.206 149.311,95.609 150.416,95.545C151.396,95.546 152.263,96.202 152.53,97.145L162.481,120.537C162.628,120.879 162.704,121.248 162.704,121.62C162.704,123.126 161.465,124.365 159.959,124.365C159.957,124.365 159.956,124.365 159.954,124.365C158.847,124.365 157.843,123.699 157.412,122.68L157.411,122.677Z" style="fill:white;fill-rule:nonzero;"/>
        </g>
        <g transform="matrix(0.480718,0,0,0.480718,-19.1309,-10.441)">
            <path d="M177.418,119.489L180.923,99.58C181.283,97.552 183.063,96.06 185.123,96.06L202.347,96.06C207.319,96.06 210.447,98.166 210.447,102.198C210.667,105.528 208.497,108.582 205.28,109.471C207.467,110.26 208.878,112.416 208.725,114.736C208.725,120.336 204.212,124.514 197.932,124.514L181.6,124.514C179.266,124.506 177.35,122.583 177.35,120.249C177.35,119.994 177.373,119.74 177.418,119.49L177.418,119.489ZM187.73,109.711C187.908,108.716 188.78,107.984 189.791,107.981L200.321,107.981C203.721,107.981 205.135,106.657 205.135,103.874C205.135,101.452 202.935,101.061 199.614,101.061L185.654,101.061L182.354,119.561L196.754,119.561C200.703,119.561 203.636,118.425 203.636,115.138C203.636,113.22 202.342,112.129 199.92,112.129L189.79,112.129C188.641,112.125 187.698,111.178 187.698,110.029C187.698,109.908 187.708,109.788 187.729,109.669L187.73,109.711Z" style="fill:white;fill-rule:nonzero;"/>
        </g>
        <g transform="matrix(0.480718,0,0,0.480718,-24.652,-10.441)">
            <path d="M223.758,119.489L227.263,99.58C227.619,97.557 229.391,96.065 231.445,96.06L248.677,96.06C253.641,96.06 256.77,98.166 256.77,102.198C256.99,105.526 254.824,108.579 251.61,109.471C253.793,110.264 255.199,112.419 255.047,114.736C255.047,120.336 250.534,124.514 244.254,124.514L227.954,124.514C227.953,124.514 227.952,124.514 227.951,124.514C225.611,124.514 223.686,122.589 223.686,120.249C223.686,119.994 223.709,119.74 223.754,119.49L223.758,119.489ZM234.07,109.711C234.244,108.717 235.114,107.984 236.123,107.981L246.653,107.981C250.06,107.981 251.467,106.657 251.467,103.874C251.467,101.452 249.278,101.061 245.954,101.061L231.986,101.061L228.7,119.6L243.1,119.6C247.049,119.6 249.982,118.464 249.982,115.177C249.982,113.259 248.696,112.168 246.266,112.168L236.123,112.168C236.122,112.168 236.121,112.168 236.121,112.168C234.974,112.168 234.03,111.224 234.03,110.077C234.03,109.94 234.043,109.803 234.07,109.668L234.07,109.711Z" style="fill:white;fill-rule:nonzero;"/>
        </g>
        <g transform="matrix(0.480718,0,0,0.480718,-30.1576,-10.441)">
            <path d="M269.929,121.994L274.129,98.076C274.339,96.913 275.361,96.059 276.543,96.06C277.884,96.06 278.987,97.163 278.987,98.504C278.987,98.645 278.974,98.787 278.95,98.926L274.761,122.731C274.58,123.744 273.69,124.49 272.661,124.491L272.018,124.491C270.85,124.491 269.889,123.53 269.889,122.362C269.889,122.238 269.9,122.113 269.922,121.991L269.929,121.994Z" style="fill:white;fill-rule:nonzero;"/>
        </g>
        <g transform="matrix(0.480718,0,0,0.480718,-32.168,-10.4362)">
            <path d="M293.457,121.578L297.097,100.984L289.252,100.984C287.891,100.984 286.771,99.863 286.771,98.502C286.771,98.358 286.783,98.215 286.808,98.073C287.013,96.89 288.051,96.017 289.252,96.02L310.771,96.02C310.773,96.02 310.775,96.02 310.777,96.02C312.135,96.02 313.252,97.137 313.252,98.495C313.252,98.637 313.239,98.78 313.215,98.92C313.011,100.105 311.974,100.98 310.771,100.981L302.061,100.981L298.3,122.435C298.09,123.595 297.072,124.448 295.893,124.451C295.883,124.451 295.872,124.451 295.862,124.451C294.521,124.451 293.418,123.348 293.418,122.007C293.418,121.863 293.431,121.72 293.456,121.578L293.457,121.578Z" style="fill:white;fill-rule:nonzero;"/>
        </g>
    </g>
</svg>
